svg/fluentui-system-icons/ic_fluent_text_align_distributed_evenly_20_regular.svg

<svg width="20" height="20" viewBox="0 0 20 20" fill="none" xmlns="http://www.w3.org/2000/svg">
<path d="M2 3.5C2 3.22386 2.22386 3 2.5 3H17.5C17.7761 3 18 3.22386 18 3.5C18 3.77614 17.7761 4 17.5 4H2.5C2.22386 4 2 3.77614 2 3.5ZM2 8.5C2 8.22386 2.22386 8 2.5 8H17.5C17.7761 8 18 8.22386 18 8.5C18 8.77614 17.7761 9 17.5 9H2.5C2.22386 9 2 8.77614 2 8.5ZM3.70711 15H16.2929L15.1464 16.1464C14.9512 16.3417 14.9512 16.6583 15.1464 16.8536C15.3417 17.0488 15.6583 17.0488 15.8536 16.8536L17.8536 14.8536C18.0488 14.6583 18.0488 14.3417 17.8536 14.1464L15.8536 12.1464C15.6583 11.9512 15.3417 11.9512 15.1464 12.1464C14.9512 12.3417 14.9512 12.6583 15.1464 12.8536L16.2929 14H3.70711L4.85355 12.8536C5.04882 12.6583 5.04882 12.3417 4.85355 12.1464C4.65829 11.9512 4.34171 11.9512 4.14645 12.1464L2.14645 14.1464C1.95118 14.3417 1.95118 14.6583 2.14645 14.8536L4.14645 16.8536C4.34171 17.0488 4.65829 17.0488 4.85355 16.8536C5.04882 16.6583 5.04882 16.3417 4.85355 16.1464L3.70711 15Z" fill="#212121"/>
</svg>

<svg xmlns="http://www.w3.org/2000/svg" width="20" height="20"><path d="M2 3.5a.5.5 0 0 1 .5-.5h15a.5.5 0 0 1 0 1h-15a.5.5 0 0 1-.5-.5Zm0 5a.5.5 0 0 1 .5-.5h15a.5.5 0 0 1 0 1h-15a.5.5 0 0 1-.5-.5ZM3.707 15h12.586l-1.147 1.146a.5.5 0 0 0 .708.708l2-2a.5.5 0 0 0 0-.708l-2-2a.5.5 0 0 0-.708.708L16.293 14H3.707l1.147-1.146a.5.5 0 0 0-.708-.708l-2 2a.5.5 0 0 0 0 .708l2 2a.5.5 0 0 0 .708-.708L3.707 15Z"/></svg>
